svg/fluentui-system-icons/ic_fluent_phone_chat_16_filled.svg

<svg width="16" height="16" viewBox="0 0 16 16" fill="none" xmlns="http://www.w3.org/2000/svg">
<path d="M4 2.75C4 1.7835 4.7835 1 5.75 1H10.25C11.2165 1 12 1.7835 12 2.75V6.02244C11.8353 6.00759 11.6684 6 11.4998 6C8.46227 6 5.99984 8.46243 5.99984 11.5C5.99984 12.3091 6.17516 13.0794 6.49033 13.7731L6.11674 15H5.75C4.7835 15 4 14.2165 4 13.25V2.75ZM11.5 16C13.9853 16 16 13.9853 16 11.5C16 9.01472 13.9853 7 11.5 7C9.01472 7 7 9.01472 7 11.5C7 12.2918 7.20449 13.0358 7.56353 13.6821L7.01892 15.4707C6.92358 15.7838 7.21625 16.0765 7.52936 15.9812L9.31846 15.4368C9.96465 15.7956 10.7085 16 11.5 16ZM9 10.5C9 10.2239 9.22386 10 9.5 10H13.5C13.7761 10 14 10.2239 14 10.5C14 10.7761 13.7761 11 13.5 11H9.5C9.22386 11 9 10.7761 9 10.5ZM9.5 13C9.22386 13 9 12.7761 9 12.5C9 12.2239 9.22386 12 9.5 12H11.5C11.7761 12 12 12.2239 12 12.5C12 12.7761 11.7761 13 11.5 13H9.5Z" fill="#212121"/>
</svg>

<svg xmlns="http://www.w3.org/2000/svg" width="16" height="16"><path d="M4 2.75C4 1.784 4.784 1 5.75 1h4.5c.966 0 1.75.784 1.75 1.75v3.272a5.5 5.5 0 0 0-5.51 7.75L6.117 15H5.75A1.75 1.75 0 0 1 4 13.25V2.75ZM11.5 16a4.5 4.5 0 1 0-3.936-2.318l-.545 1.789a.41.41 0 0 0 .51.51l1.79-.544A4.48 4.48 0 0 0 11.5 16ZM9 10.5a.5.5 0 0 1 .5-.5h4a.5.5 0 0 1 0 1h-4a.5.5 0 0 1-.5-.5Zm.5 2.5a.5.5 0 0 1 0-1h2a.5.5 0 0 1 0 1h-2Z"/></svg>
